X: 2
T:Det var en l\ordag aften
M:2/4
L:1/8
Q:160
C:anon.
O:Denmark
Z:Transcribed by Frank Nordberg - http://musica-viva.eosnet.com/
K:F
C|"F"FF CC|"F"A2 FA|"C7"GE CE|"F"F2 z C|
w:Det var en l\or- dag af- ten jeg sad og ven- ted dig. Det
"F"FF CC|"Dm"A2 FA|"Gm"GE "C7"CE|"F"F2 z A|
w:var en l\or- dag af- ten jeg sad og ven- ted dig. Du
"F"AA cA|"C"GG cG|"Dm"FF "G7"dd|"C7"c2 z B|
w:Du lo- ved mig at kom- me vist, men kom dog ej til mig!
"F"AA "F7"cA|"Bb"AG "Gm"BG|"C7"FE DE|"F"F3|]
w:Du lo- ved mig at kom- me vist, men kom dog ej til mig!
w:Jeg lagde mig p\aa sengen og gr\aed s\aa bitterlig,
W:og hver en gang at d\oren gik, jeg tro'de det var dig.
w:Jeg stod op s\ondag morgen og flettede mit h\aar;
W:s\aa gik jeg mig til kirken hen og om den kirkeg\aard.
w:Men du kom ej til kirke og ei i kirken ind -
W:for du har f\aa't en anden k\aer og slaget mig af sind.
w:Jeg gik mig hjem s\aa ene hen ad den kirkesti,
W:og hvert et spor, p\aa stien var, d\´er faldt min t\aare i.
w:De r\ode b\aand s\aa sk\onne, som du engang mig gav, -
W:dem b\aerer jeg ret aldrig mer, jeg stunder til min grav.
w:Hvor kan man plukke roser, hvor ingen roser gror!
W:hvor kan man finde k\aerlighed, hvor k\aerlighed ej bor!
w:Jeg vilde roser plukke, - jeg plukker ingen fler;
W:jeg elsked dig s\aa inderlig, - jeg elsker aldrig mer!
%This songs is certainly Danish of orign, although it's also very well k
nown
%in Norway where it's often played as a waltz (see below).
W:
W: From "Falaleiro" http://home.t-online.de/home/pheld/homepage.htm

